X:130
T: Gun in the Thatch
S: "Fiddlecase" (#11)
L: 1/8
M: 4/4
R: reel
K: G
dc|BGAF DG G2|gfge fdcd|BG (3GGG DGFG|FGAB c2 dc|
BGAF DG G2|gfge fdcd|BGAF DG (3GGG|FGAB c2 Bc||
dgfg (3ggg bg|dgbg fgaf|dggf (3ggg dg|bgaf gfef|
dgfg (3ggg bg|dgbg fgaf|dggf (3ggg dg|bgaf gedc||
